X:2490
L:1/8
M:6/8
K:G
 G | EAA EAA | BAB G2 A | Bee Bdd | BAB GED | EAA EAA | BAB G2 A | Bee edB | dBA A2 :| d | eaaage | 
 dBA G2 A | Bee edB | def g3 | aba age | dBA G2 A | Bee edB | dBA A2 :|

